packages/blockchain-info-components/src/Images/img/facebook-white.svg

<svg height="23" viewBox="0 0 12 23" width="12" xmlns="http://www.w3.org/2000/svg"><path d="m12 6.82397126h-4.17476361v-1.86642717c0-.87785761.5810238-1.08262574.9898924-1.08262574h2.92272581v-3.86218158l-4.23443106-.01273677c-3.84023476 0-4.56895989 2.87949053-4.56895989 4.72338341v2.10058785h-2.93446365v3.91900714h2.93446365v11.7570216h4.89077274v-11.7570216h3.76687321z" fill="#fff" fill-rule="evenodd"/></svg>

<?xml version="1.0" encoding="UTF-8"?>
<svg width="12px" height="23px" viewBox="0 0 12 23" version="1.1" xmlns="http://www.w3.org/2000/svg" xmlns:xlink="http://www.w3.org/1999/xlink">
    <!-- Generator: Sketch 50.2 (55047) - http://www.bohemiancoding.com/sketch -->
    <title>Fill 256</title>
    <desc>Created with Sketch.</desc>
    <defs></defs>
    <g id="Page-1" stroke="none" stroke-width="1" fill="white" fill-rule="evenodd">
        <g id="Icons" transform="translate(-439.000000, -1.000000)">
            <g id="Fill-256" transform="translate(439.000000, 1.000000)">
                <path d="M12,6.82397126 L7.82523639,6.82397126 L7.82523639,4.95754409 C7.82523639,4.07968648 8.40626019,3.87491835 8.81512879,3.87491835 L11.7378546,3.87491835 L11.7378546,0.0127367734 L7.50342354,0 C3.66318878,0 2.93446365,2.87949053 2.93446365,4.72338341 L2.93446365,6.82397126 L0,6.82397126 L0,10.7429784 L2.93446365,10.7429784 L2.93446365,22.5 L7.82523639,22.5 L7.82523639,10.7429784 L11.5921096,10.7429784 L12,6.82397126 Z"></path>
            </g>
        </g>
    </g>
</svg>
